X:185
U: ~ = !turn!
%%topmargin 3cm
T:Sean McKenna's (2)
B:Traditional Irish Fiddle Tunes. Randy Miller and Jack Perron.
Z:Transcribed by Ralph Palmer
S:Seamus Tansey
R:Reel
L:1/8
M:C|
K:G
e3 d B3 A | GABG AGED | ~G3 B dBeB | dBAc BG PG2 |
gfed edBA | GABG AG E2 | ~G3 B dg ~g2 | dBAc BG G2 ||
fgag fedB | edef ~g3 f | eB ~B2 gfed | BAGA BA A2 |
fgag fedB | edef ~g3 a | b3 a gfed | e2 fa g2 z2 |]
